X:1
T: Mackilmoyle
C: R-73
C: French Canadian
M: C|
Z:
R: reel
K: D
DFAd| "D"fdfd "A"cdec| "D"dBAF DFA=c| "G"BGBG "D"FGAF| "A"E2FE "D"DFAd|
      "D"fdfd "A"cdec| "D"dBAF DFA=c| "G"BGBd "A"cdec| "D"d4 :|
|:\
Acef| "G"gfg2 "A"Ace^g| aga2 Acef| "G"gfge dfed| "A"cBA2 Acef|
      "G"gfg2 "A"Ace^g| aga2 Acef| "G"gfge "A"cdec| "D"d4 :|
%
